X:1
T:[ID 3-65]
T:[ID 3-65]
T:Bezeichnung standardisiert: Andante Son fido Son Constante; Andante Son fido Son Constante In dieser Quelle auch als: Andante
T:Urheber unbekannt Datum in der hier transkribierten schriftlichen Quelle: 1767
C:Urheber unbekannt
C:Datum in der hier transkribierten schriftlichen Quelle: 1767
%%score 1 2
L:1/8
M:2/4
K:D
V:1 treble 
V:2 treble 
V:1
 A | dd dd/f/ | e/c/d z f | e/d/c/B/ Ae/g/ | f/e/d z f/a/ | (3g/f/e/ (3d/c/B/ Ae/g/ | f/e/d z f | %7
 ef/^g/ af | e/d'/b/^g/ ad | (3c/d/e/ (3f/e/d/ cB | A2 z :: a/g/ | ffff | g/a/b z g/f/ | eeee | %15
 f/g/a z g | (3f/e/d/ (3d'/c'/b/ ag | (3f/e/d/ (3d'/c'/b/ ag | (3f/g/a/ (3b/a/g/ fTe | d2 z :| %20
V:2
 !fermata!z | FF FF/A/ | G/E/F z d | c/B/A/d/ cc | d/A/F z d/f/ | (3e/d/c/ (3B/A/G/ Ac | %6
 d/G/F z d | cBcd | cBcB | (3A/B/c/ (3d/c/B/ A^G | A2 z :: f/e/ | dddd | e/f/g z e/d/ | cccc | %15
 d/e/fze | (3d/c/d/ (3b/a/g/ fe | (3d/c/d/ (3b/a/g/ fe | (3d/e/f/ (3g/f/e/ dA/G/ | F2 z :| %20

